X: 22
T: Man Of The House, The
Z: Sean Perry
S: https://thesession.org/tunes/222#setting50929
R: reel
M: 4/4
L: 1/8
K: Emin
|:E2BE GABG|E2BE ADFA|E2BE GAB^c|1 d/^c/B BA BEED:|2 d/^c/B BA Beed||
efge fgaf|gfed edBd|efge fgaf|gfed Beed|
efge fgaf|gfed efga|bagf gfed|edBA GFED||

